X:145
T:Hornpipe,A. (p)1657.PLFD.146
M:6/4
L:1/4
Q:3/4=90
S:Playford, Dancing Master,Supplement to 3rd Ed.,1657
O:England
H:1657.
Z:Chris Partington.
K:G
d|BGGd2B|ccAe2d|BGGd2e|dB2-B2:|
|:z/4d/4e/4f/4|gfeg2d|gfef3|a3fed|
B2BcAA|A2dBGG|d2edB:|
